svgs/sharp-solid/bell-concierge.svg

<svg xmlns="http://www.w3.org/2000/svg" viewBox="0 0 512 512"><!--! Font Awesome Pro 6.6.0 by @fontawesome - https://fontawesome.com License - https://fontawesome.com/license (Commercial License) Copyright 2024 Fonticons, Inc. --><path d="M216 64l-24 0 0 48 24 0 16 0 0 33.3C119.6 157.2 32 252.4 32 368l448 0c0-115.6-87.6-210.8-200-222.7l0-33.3 16 0 24 0 0-48-24 0-40 0-40 0zM24 400L0 400l0 48 24 0 464 0 24 0 0-48-24 0L24 400z"/></svg>

<svg xmlns="http://www.w3.org/2000/svg" viewBox="0 0 512 512"><!--! Font Awesome Pro 6.4.2 by @fontawesome - https://fontawesome.com License - https://fontawesome.com/license (Commercial License) Copyright 2023 Fonticons, Inc. --><path d="M216 64H192v48h24 16v33.3C119.6 157.2 32 252.4 32 368H480c0-115.6-87.6-210.8-200-222.7V112h16 24V64H296 256 216zM24 400H0v48H24 488h24V400H488 24z"/></svg>
